svg/fluentui-system-icons/ic_fluent_cellular_5g_20_regular.svg

<svg width="20" height="20" viewBox="0 0 20 20" fill="none" xmlns="http://www.w3.org/2000/svg">
<path d="M9.49552 3L9.24996 3.00001C8.55962 3.00004 8 3.55967 8 4.25001V5.75008C8 6.44043 8.55965 7.00008 9.25 7.00008C9.94036 7.00008 10.5 6.44043 10.5 5.75008H9.5C9.22386 5.75008 9 5.52622 9 5.25008C9 4.97393 9.22386 4.75008 9.5 4.75008H11C11.2761 4.75008 11.5 4.97393 11.5 5.25008V5.75008C11.5 6.99272 10.4926 8.00008 9.25 8.00008C8.00736 8.00008 7 6.99272 7 5.75008V4.25001C7 3.0074 8.00731 2.00006 9.24992 2.00001L9.49987 2C9.52827 2 10.6166 1.99983 11.1473 3.01918C11.2749 3.26412 11.1797 3.56605 10.9347 3.69357C10.6898 3.82109 10.3879 3.7259 10.2603 3.48097C10.1368 3.24364 9.95057 3.12557 9.782 3.06272C9.63037 3.0062 9.50615 3.00049 9.49552 3ZM16.5034 5.00098C16.7488 5.00098 16.953 5.17785 16.9953 5.4111L17.0034 5.50098V16.5012C17.0034 16.7774 16.7795 17.0012 16.5034 17.0012C16.2579 17.0012 16.0537 16.8243 16.0114 16.5911L16.0034 16.5012V5.50098C16.0034 5.22483 16.2272 5.00098 16.5034 5.00098ZM7.50335 10.9999C7.74881 10.9999 7.95296 11.1768 7.9953 11.41L8.00335 11.4999V16.5002C8.00335 16.7763 7.77949 17.0002 7.50335 17.0002C7.25789 17.0002 7.05374 16.8233 7.01141 16.59L7.00335 16.5002V11.4999C7.00335 11.2238 7.22721 10.9999 7.50335 10.9999ZM4.5 13.0002C4.74546 13.0002 4.94961 13.177 4.99195 13.4103L5 13.5002V16.5002C5 16.7763 4.77615 17.0002 4.5 17.0002C4.25454 17.0002 4.0504 16.8233 4.00806 16.59L4 16.5002V13.5002C4 13.224 4.22386 13.0002 4.5 13.0002ZM10.5 8.99769C10.7455 8.99769 10.9496 9.17456 10.9919 9.40781L11 9.49769V16.5002C11 16.7763 10.7761 17.0002 10.5 17.0002C10.2545 17.0002 10.0504 16.8233 10.0081 16.59L10 16.5002V9.49769C10 9.22155 10.2239 8.99769 10.5 8.99769ZM13.5 7.00226C13.7455 7.00226 13.9496 7.17913 13.9919 7.41238L14 7.50226V16.5002C14 16.7763 13.7761 17.0002 13.5 17.0002C13.2545 17.0002 13.0504 16.8233 13.0081 16.59L13 16.5002V7.50226C13 7.22612 13.2239 7.00226 13.5 7.00226ZM2.75 2C2.49784 2 2.28514 2.18777 2.25386 2.43798L2.00386 4.43798C1.98518 4.5875 2.03491 4.73747 2.13924 4.84619C2.24357 4.95491 2.39136 5.01079 2.54152 4.99827L2.71624 4.98371L4.08734 4.86947C4.57877 4.82852 5.00024 5.21633 5.00024 5.70946V5.92679C5.00024 6.51951 4.51975 7 3.92703 7C3.5631 7 3.3313 6.84301 3.1793 6.68016C3.10072 6.59597 3.0448 6.51073 3.00911 6.44724C2.99151 6.41593 2.97955 6.3912 2.97277 6.37634C2.9694 6.36894 2.96662 6.36231 2.96662 6.36231C2.86772 6.10681 2.58107 5.97799 2.32411 6.07473C2.06567 6.17203 1.93505 6.46041 2.03234 6.71884L2.0327 6.71978L2.03309 6.72081L2.03398 6.72314L2.03622 6.72889L2.04255 6.74453C2.0476 6.75674 2.05436 6.77249 2.06292 6.79127C2.08002 6.82876 2.10455 6.87882 2.1374 6.93726C2.20262 7.05328 2.30345 7.20736 2.44827 7.36251C2.74306 7.67833 3.22463 8 3.92703 8C5.07203 8 6.00024 7.07179 6.00024 5.92679V5.70946C6.00024 4.63129 5.07875 3.78339 4.0043 3.87292L3.07258 3.95056L3.19139 3H5.50024C5.77638 3 6.00024 2.77614 6.00024 2.5C6.00024 2.22386 5.77638 2 5.50024 2H2.75Z" fill="#212121"/>
</svg>

<svg xmlns="http://www.w3.org/2000/svg" width="20" height="20"><path d="M9.496 3H9.25C8.56 3 8 3.56 8 4.25v1.5a1.25 1.25 0 0 0 2.5 0h-1a.5.5 0 0 1 0-1H11a.5.5 0 0 1 .5.5v.5a2.25 2.25 0 0 1-4.5 0v-1.5A2.25 2.25 0 0 1 9.25 2h.25c.028 0 1.117 0 1.647 1.02a.5.5 0 1 1-.887.461.859.859 0 0 0-.478-.418A.974.974 0 0 0 9.496 3Zm7.007 2.001a.5.5 0 0 1 .492.41l.008.09v11a.5.5 0 0 1-.992.09l-.008-.09v-11a.5.5 0 0 1 .5-.5Zm-9 5.999a.5.5 0 0 1 .492.41l.008.09v5a.5.5 0 0 1-.992.09l-.008-.09v-5a.5.5 0 0 1 .5-.5ZM4.5 13a.5.5 0 0 1 .492.41L5 13.5v3a.5.5 0 0 1-.992.09L4 16.5v-3a.5.5 0 0 1 .5-.5Zm6-4.002a.5.5 0 0 1 .492.41l.008.09V16.5a.5.5 0 0 1-.992.09L10 16.5V9.498a.5.5 0 0 1 .5-.5Zm3-1.996a.5.5 0 0 1 .492.41l.008.09V16.5a.5.5 0 0 1-.992.09L13 16.5V7.502a.5.5 0 0 1 .5-.5ZM2.75 2a.5.5 0 0 0-.496.438l-.25 2a.5.5 0 0 0 .538.56l.174-.014 1.371-.115A.843.843 0 0 1 5 5.71v.218C5 6.52 4.52 7 3.927 7a.977.977 0 0 1-.748-.32 1.227 1.227 0 0 1-.206-.304l-.006-.014a.5.5 0 0 0-.935.357l.001.002.001.002.002.006.007.016a1.444 1.444 0 0 0 .094.192c.066.116.166.27.311.426A1.98 1.98 0 0 0 3.927 8 2.073 2.073 0 0 0 6 5.927v-.218a1.843 1.843 0 0 0-1.996-1.836l-.931.078L3.19 3H5.5a.5.5 0 0 0 0-1H2.75Z"/></svg>
